;FLAVOR:Marlin
;TIME:5246
;Filament used: 5.09734m
;Layer height: 0.2
;MINX:76.369
;MINY:74.77
;MINZ:0.2
;MAXX:150.295
;MAXY:177.915
;MAXZ:19
;Generated with Cura_SteamEngine 4.8.0
M140 S50
M105
M190 S50
M104 S200
M105
M109 S200
M82 ;absolute extrusion mode
; Ender 3 Custom Start G-code
G92 E0 ; Reset Extruder
G28 ; Home all axes
G1 Z2.0 F3000 ; Move Z Axis up little to prevent scratching of Heat Bed
G1 X0.1 Y20 Z0.3 F5000.0 ; Move to start position
G1 X0.1 Y200.0 Z0.3 F1500.0 E15 ; Draw the first line
G1 X0.4 Y200.0 Z0.3 F5000.0 ; Move to side a little
G1 X0.4 Y20 Z0.3 F1500.0 E30 ; Draw the second line
G92 E0 ; Reset Extruder
G1 Z2.0 F3000 ; Move Z Axis up little to prevent scratching of Heat Bed
G1 X5 Y20 Z0.3 F5000.0 ; Move over to prevent blob squish
G92 E0
G92 E0
G1 F2700 E-5
;LAYER_COUNT:95
;LAYER:0
M107
G0 F6000 X80.189 Y78.313 Z0.2
;TYPE:SKIRT
G1 F2700 E0
G1 F1200 X80.881 Y77.65 E0.04781
G1 X81.627 Y77.046 E0.0957
G1 X82.42 Y76.507 E0.14354
G1 X83.255 Y76.036 E0.19137
G1 X84.127 Y75.636 E0.23923
G1 X85.028 Y75.31 E0.28703
G1 X85.954 Y75.06 E0.33488
G1 X86.898 Y74.889 E0.38275
G1 X88.16 Y74.784 E0.44593
G1 X88.48 Y74.775 E0.4619
G1 X88.803 Y74.77 E0.47801
G1 X119.516 Y74.77 E2.01029
G1 X120.381 Y74.781 E2.05345
G1 X121.338 Y74.835 E2.10127
G1 X122.355 Y74.98 E2.15252
G1 X122.702 Y75.05 E2.17018
G1 X123.43 Y75.207 E2.20734
G1 X130.539 Y76.829 E2.57112
G1 X131.204 Y76.991 E2.60527
G1 X132.125 Y77.256 E2.65308
G1 X133.021 Y77.598 E2.70093
G1 X133.886 Y78.013 E2.74879
G1 X134.713 Y78.498 E2.79662
G1 X135.23 Y78.852 E2.82788
G1 X135.603 Y79.13 E2.85109
G1 X136.092 Y79.511 E2.88202
G1 X141.882 Y84.13 E3.25154
G1 X142.41 Y84.564 E3.28564
G1 X143.125 Y85.203 E3.33348
G1 X143.784 Y85.9 E3.38134
G1 X144.383 Y86.649 E3.42919
G1 X144.917 Y87.445 E3.47701
G1 X145.233 Y87.996 E3.5087
G1 X145.453 Y88.417 E3.5324
G1 X145.755 Y89.028 E3.5664
G1 X148.93 Y95.622 E3.93152
G1 X149.22 Y96.248 E3.96594
G1 X149.586 Y97.134 E4.01377
G1 X149.878 Y98.048 E4.06164
G1 X150.092 Y98.983 E4.10949
G1 X150.227 Y99.932 E4.15732
G1 X150.279 Y100.711 E4.19627
G1 X150.288 Y101.053 E4.21333
G1 X150.295 Y101.656 E4.24342
G1 X150.294 Y109.03 E4.61131
G1 X150.283 Y109.739 E4.64669
G1 X150.228 Y110.697 E4.69456
G1 X150.094 Y111.645 E4.74233
G1 X150.04 Y111.938 E4.75719
G1 X149.62 Y114.395 E4.88155
G1 X149.264 Y116.901 E5.00783
G1 X148.981 Y119.395 E5.13305
G1 X148.77 Y121.88 E5.25748
G1 X148.63 Y124.368 E5.3818
G1 X148.559 Y126.9 E5.50817
G1 X148.559 Y129.397 E5.63275
G1 X148.63 Y131.888 E5.75707
G1 X148.771 Y134.357 E5.88045
G1 X148.988 Y136.904 E6.00798
G1 X149.269 Y139.375 E6.13206
G1 X149.571 Y141.529 E6.24057
G1 X149.67 Y142.609 E6.29468
G1 X149.684 Y143.051 E6.31674
G1 X149.692 Y143.771 E6.35267
G1 X149.691 Y151.061 E6.71637
G1 X149.681 Y151.766 E6.75154
G1 X149.627 Y152.724 E6.79941
G1 X149.494 Y153.673 E6.84722
G1 X149.282 Y154.609 E6.8951
G1 X148.993 Y155.523 E6.94293
G1 X148.731 Y156.183 E6.97835
G1 X148.57 Y156.542 E6.99798
G1 X148.285 Y157.15 E7.03148
G1 X145.097 Y163.764 E7.39779
G1 X144.779 Y164.398 E7.43317
G1 X144.314 Y165.236 E7.48099
G1 X143.781 Y166.033 E7.52882
G1 X143.182 Y166.783 E7.57671
G1 X142.524 Y167.48 E7.62453
G1 X141.984 Y167.973 E7.66101
G1 X141.716 Y168.199 E7.6785
G1 X141.196 Y168.623 E7.71197
G1 X135.628 Y173.064 E8.0673
G1 X134.915 Y173.616 E8.11229
G1 X134.133 Y174.171 E8.16013
G1 X133.307 Y174.659 E8.20799
G1 X132.444 Y175.076 E8.25581
G1 X131.549 Y175.419 E8.30363
G1 X130.604 Y175.693 E8.35271
G1 X129.851 Y175.876 E8.39138
G1 X122.766 Y177.492 E8.75393
G1 X122.041 Y177.648 E8.79092
G1 X121.096 Y177.81 E8.83876
G1 X119.798 Y177.904 E8.90369
G1 X118.967 Y177.915 E8.94515
G1 X88.428 Y177.914 E10.46874
G1 X87.73 Y177.905 E10.50357
G1 X86.772 Y177.853 E10.55144
G1 X85.822 Y177.721 E10.59929
G1 X84.887 Y177.51 E10.64711
G1 X83.972 Y177.222 E10.69496
G1 X83.084 Y176.859 E10.74283
G1 X82.23 Y176.424 E10.79064
G1 X81.415 Y175.918 E10.8385
G1 X80.645 Y175.347 E10.88633
G1 X79.925 Y174.713 E10.93419
G1 X79.261 Y174.022 E10.982
G1 X78.656 Y173.277 E11.02988
G1 X78.116 Y172.485 E11.0777
G1 X77.644 Y171.651 E11.12551
G1 X77.242 Y170.78 E11.17337
G1 X76.915 Y169.878 E11.22124
G1 X76.664 Y168.953 E11.26906
G1 X76.49 Y168.01 E11.3169
G1 X76.382 Y166.717 E11.38163
G1 X76.373 Y166.384 E11.39825
G1 X76.369 Y166.073 E11.41377
G1 X76.37 Y128.858 E13.27043
G1 X76.38 Y128.161 E13.30521
G1 X76.404 Y127.561 E13.33517
G1 X76.438 Y127.141 E13.35619
G1 X76.532 Y126.195 E13.40362
G1 X76.753 Y123.6 E13.53355
G1 X76.892 Y121.137 E13.65662
G1 X76.973 Y117.279 E13.84914
G1 X76.974 Y86.801 E15.3697
G1 X76.984 Y86.112 E15.40408
G1 X77.038 Y85.155 E15.4519
G1 X77.172 Y84.205 E15.49976
G1 X77.384 Y83.27 E15.54759
G1 X77.673 Y82.356 E15.59542
G1 X78.037 Y81.469 E15.64325
G1 X78.475 Y80.615 E15.69113
G1 X78.981 Y79.801 E15.73895
G1 X79.554 Y79.032 E15.7868
G1 X80.189 Y78.313 E15.83465
G0 F6000 X80.777 Y78.57
G1 F1200 X81.465 Y77.939 E15.88123
G1 X82.205 Y77.369 E15.92783
G1 X82.99 Y76.864 E15.9744
G1 X83.816 Y76.429 E16.02097
G1 X84.676 Y76.066 E16.06754
G1 X85.564 Y75.777 E16.11413
G1 X86.473 Y75.566 E16.16069
G1 X87.397 Y75.433 E16.20726
G1 X88.177 Y75.383 E16.24626
G1 X88.497 Y75.374 E16.26223
G1 X88.803 Y75.37 E16.2775
G1 X119.516 Y75.37 E17.80977
G1 X120.372 Y75.381 E17.85248
G1 X121.305 Y75.434 E17.89911
G1 X122.243 Y75.57 E17.94639
G1 X122.576 Y75.636 E17.96333
G1 X123.297 Y75.792 E18.00013
G1 X130.397 Y77.412 E18.36346
G1 X131.062 Y77.574 E18.3976
G1 X131.959 Y77.833 E18.44418
G1 X132.83 Y78.169 E18.49076
G1 X133.669 Y78.577 E18.5373
G1 X134.471 Y79.057 E18.58393
G1 X134.878 Y79.338 E18.60861
G1 X135.235 Y79.604 E18.63082
G1 X135.718 Y79.98 E18.66136
G1 X141.376 Y84.492 E19.0224
G1 X142.029 Y85.028 E19.06455
G1 X142.725 Y85.651 E19.11115
G1 X143.364 Y86.331 E19.15771
G1 X143.943 Y87.064 E19.20431
G1 X144.457 Y87.843 E19.25087
G1 X144.705 Y88.28 E19.27594
G1 X144.915 Y88.683 E19.29861
G1 X145.214 Y89.288 E19.33228
G1 X148.385 Y95.874 E19.69696
G1 X148.675 Y96.5 E19.73138
G1 X149.031 Y97.363 E19.77795
G1 X149.312 Y98.254 E19.82456
G1 X149.515 Y99.165 E19.87113
G1 X149.64 Y100.09 E19.9177
G1 X149.679 Y100.731 E19.94973
G1 X149.688 Y101.061 E19.9662
G1 X149.695 Y101.656 E19.99589
G1 X149.694 Y109.021 E20.36333
G1 X149.683 Y109.73 E20.39871
G1 X149.628 Y110.662 E20.44529
G1 X149.503 Y111.537 E20.48938
G1 X149.474 Y111.692 E20.49725
G1 X149.025 Y114.319 E20.63021
G1 X148.665 Y116.85 E20.75776
G1 X148.385 Y119.316 E20.88158
G1 X148.172 Y121.829 E21.0074
G1 X148.03 Y124.354 E21.13357
G1 X147.959 Y126.883 E21.25979
G1 X147.959 Y129.379 E21.38432
G1 X148.032 Y131.939 E21.51209
G1 X148.173 Y134.407 E21.63542
G1 X148.39 Y136.953 E21.7629
G1 X148.674 Y139.447 E21.88813
G1 X148.977 Y141.612 E21.9972
G1 X149.071 Y142.635 E22.04845
G1 X149.084 Y143.059 E22.06961
G1 X149.092 Y143.771 E22.10514
G1 X149.091 Y151.053 E22.46844
G1 X149.081 Y151.758 E22.50361
G1 X149.028 Y152.69 E22.55019
G1 X148.895 Y153.614 E22.59676
G1 X148.684 Y154.523 E22.64332
G1 X148.395 Y155.411 E22.68991
G1 X148.18 Y155.944 E22.71858
G1 X148.026 Y156.288 E22.73738
G1 X147.745 Y156.89 E22.77053
G1 X144.638 Y163.339 E23.12766
G1 X144.243 Y164.129 E23.17173
G1 X143.789 Y164.945 E23.21832
G1 X143.267 Y165.719 E23.26489
G1 X142.681 Y166.445 E23.31144
G1 X142.034 Y167.119 E23.35805
G1 X141.594 Y167.518 E23.38768
G1 X141.336 Y167.734 E23.40447
G1 X140.822 Y168.153 E23.43755
G1 X135.127 Y172.694 E23.80095
G1 X134.548 Y173.142 E23.83747
G1 X133.786 Y173.681 E23.88403
G1 X132.981 Y174.153 E23.93059
G1 X132.138 Y174.554 E23.97716
G1 X131.263 Y174.882 E24.02378
G1 X130.462 Y175.11 E24.06533
G1 X129.717 Y175.291 E24.10358
G1 X122.64 Y176.905 E24.46572
G1 X121.915 Y177.061 E24.50272
G1 X120.995 Y177.218 E24.54928
G1 X119.788 Y177.304 E24.60965
G1 X118.967 Y177.315 E24.65062
G1 X88.435 Y177.314 E26.17386
G1 X87.737 Y177.305 E26.20869
G1 X86.805 Y177.253 E26.25526
G1 X85.881 Y177.122 E26.30182
G1 X84.971 Y176.911 E26.34842
G1 X84.083 Y176.624 E26.39498
G1 X83.223 Y176.262 E26.44153
G1 X82.396 Y175.827 E26.48815
G1 X81.61 Y175.324 E26.53471
G1 X80.87 Y174.755 E26.58128
G1 X80.181 Y174.124 E26.62789
G1 X79.549 Y173.437 E26.67446
G1 X78.978 Y172.699 E26.72102
G1 X78.472 Y171.914 E26.76761
G1 X78.035 Y171.089 E26.81419
G1 X77.671 Y170.23 E26.86073
G1 X77.381 Y169.342 E26.90734
G1 X77.168 Y168.433 E26.95392
G1 X77.034 Y167.509 E27.0005
G1 X76.982 Y166.7 E27.04094
G1 X76.973 Y166.367 E27.05756
G1 X76.969 Y166.073 E27.07223
G1 X76.97 Y128.867 E28.92845
G1 X76.98 Y128.17 E28.96322
G1 X77.003 Y127.598 E28.99178
G1 X77.035 Y127.201 E29.01165
G1 X77.131 Y126.238 E29.05994
G1 X77.351 Y123.652 E29.18942
G1 X77.49 Y121.183 E29.31279
G1 X77.573 Y117.244 E29.50935
G1 X77.574 Y86.81 E31.02771
G1 X77.584 Y86.121 E31.06209
G1 X77.638 Y85.189 E31.10866
G1 X77.771 Y84.265 E31.15524
G1 X77.982 Y83.355 E31.20184
G1 X78.271 Y82.468 E31.24839
G1 X78.635 Y81.608 E31.29498
G1 X79.071 Y80.782 E31.34157
G1 X79.575 Y79.997 E31.38811
G1 X80.146 Y79.258 E31.43471
G1 X80.777 Y78.57 E31.48128
G0 F6000 X81.364 Y78.835
G1 F1200 X82.047 Y78.237 E31.52657
G1 X82.78 Y77.702 E31.57185
G1 X83.557 Y77.233 E31.61712
G1 X84.373 Y76.835 E31.66242
G1 X85.22 Y76.51 E31.70768
G1 X86.093 Y76.26 E31.75299
G1 X86.984 Y76.089 E31.79825
G1 X88.193 Y75.983 E31.8588
G1 X88.513 Y75.974 E31.87477
G1 X88.803 Y75.97 E31.88924
G1 X119.516 Y75.97 E33.42152
G1 X120.364 Y75.981 E33.46383
G1 X121.27 Y76.034 E33.5091
G1 X122.132 Y76.16 E33.55257
G1 X122.45 Y76.223 E33.56874
G1 X123.164 Y76.377 E33.60518
G1 X130.255 Y77.995 E33.96804
G1 X130.92 Y78.157 E34.00219
G1 X131.791 Y78.41 E34.04744
G1 X132.637 Y78.739 E34.09273
G1 X133.45 Y79.142 E34.138
G1 X134.526 Y79.824 E34.20156
G1 X134.867 Y80.078 E34.22277
G1 X135.344 Y80.449 E34.25292
G1 X141.002 Y84.961 E34.61396
G1 X141.648 Y85.491 E34.65565
G1 X142.323 Y86.098 E34.70094
G1 X142.942 Y86.761 E34.74619
G1 X143.501 Y87.477 E34.79151
G1 X144.177 Y88.565 E34.85542
G1 X144.378 Y88.95 E34.87708
G1 X144.674 Y89.548 E34.91037
G1 X147.841 Y96.126 E35.27461
G1 X148.131 Y96.752 E35.30903
G1 X148.476 Y97.592 E35.35433
G1 X148.745 Y98.458 E35.39957
G1 X148.938 Y99.345 E35.44486
G1 X149.051 Y100.246 E35.49016
G1 X149.08 Y100.75 E35.51535
G1 X149.088 Y101.069 E35.53127
G1 X149.095 Y101.656 E35.56056
G1 X149.094 Y109.012 E35.92755
G1 X149.083 Y109.721 E35.96293
G1 X149.029 Y110.627 E36.00821
G1 X148.913 Y111.428 E36.04859
G1 X148.87 Y111.664 E36.06055
G1 X148.435 Y114.204 E36.18912
G1 X148.07 Y116.772 E36.31852
G1 X147.787 Y119.267 E36.4438
G1 X147.574 Y121.779 E36.56957
G1 X147.43 Y124.338 E36.69744
G1 X147.359 Y126.867 E36.82367
G1 X147.359 Y129.396 E36.94984
G1 X147.432 Y131.957 E37.07766
G1 X147.575 Y134.455 E37.20249
G1 X147.792 Y137.002 E37.33002
G1 X148.078 Y139.519 E37.4564
G1 X148.383 Y141.695 E37.56602
G1 X148.472 Y142.662 E37.61447
G1 X148.484 Y143.066 E37.63464
G1 X148.492 Y143.771 E37.66981
G1 X148.491 Y151.044 E38.03266
G1 X148.481 Y151.749 E38.06784
G1 X148.428 Y152.655 E38.11312
G1 X148.296 Y153.553 E38.1584
G1 X148.085 Y154.436 E38.20369
G1 X147.63 Y155.705 E38.27095
G1 X147.483 Y156.035 E38.28897
G1 X147.204 Y156.63 E38.32176
G1 X144.025 Y163.226 E38.68706
G1 X143.707 Y163.86 E38.72245
G1 X143.265 Y164.652 E38.7677
G1 X142.754 Y165.403 E38.81301
G1 X142.18 Y166.106 E38.85829
G1 X141.546 Y166.755 E38.90356
G1 X141.147 Y167.11 E38.9302
G1 X140.957 Y167.269 E38.94256
G1 X140.448 Y167.684 E38.97533
G1 X134.76 Y172.219 E39.33826
G1 X134.181 Y172.667 E39.37478
G1 X133.44 Y173.19 E39.42003
G1 X132.655 Y173.646 E39.46532
G1 X131.833 Y174.031 E39.51061
G1 X130.981 Y174.343 E39.55588
G1 X130.32 Y174.527 E39.59011
G1 X129.584 Y174.706 E39.6279
G1 X122.514 Y176.319 E39.98968
G1 X121.789 Y176.475 E40.02668
G1 X120.894 Y176.626 E40.07196
G1 X119.779 Y176.704 E40.12773
G1 X118.967 Y176.715 E40.16824
G1 X88.443 Y176.714 E41.69109
G1 X87.745 Y176.705 E41.72592
G1 X86.839 Y176.653 E41.77119
G1 X85.941 Y176.522 E41.81647
G1 X85.058 Y176.313 E41.86174
G1 X84.197 Y176.026 E41.90702
G1 X83.365 Y175.664 E41.95228
G1 X82.567 Y175.231 E41.99758
G1 X81.811 Y174.73 E42.04283
G1 X81.102 Y174.163 E42.08812
G1 X80.445 Y173.537 E42.13339
G1 X79.847 Y172.855 E42.17865
G1 X79.31 Y172.123 E42.22394
G1 X78.84 Y171.346 E42.26924
G1 X78.44 Y170.532 E42.31449
G1 X78.114 Y169.685 E42.35977
G1 X77.863 Y168.813 E42.40504
G1 X77.69 Y167.922 E42.45033
G1 X77.582 Y166.684 E42.51232
G1 X77.573 Y166.351 E42.52894
G1 X77.569 Y166.073 E42.54281
G1 X77.57 Y128.875 E44.39863
G1 X77.58 Y128.178 E44.43341
G1 X77.602 Y127.636 E44.46047
G1 X77.632 Y127.26 E44.47929
G1 X77.73 Y126.275 E44.52867
G1 X77.949 Y123.701 E44.65755
G1 X78.09 Y121.201 E44.78248
G1 X78.173 Y117.257 E44.97929
G1 X78.174 Y86.819 E46.49785
G1 X78.184 Y86.13 E46.53222
G1 X78.237 Y85.224 E46.5775
G1 X78.37 Y84.326 E46.62279
G1 X78.581 Y83.443 E46.66809
G1 X78.869 Y82.583 E46.71333
G1 X79.232 Y81.751 E46.75862
G1 X79.666 Y80.954 E46.8039
G1 X80.169 Y80.199 E46.84916
G1 X80.737 Y79.49 E46.89448
G1 X81.364 Y78.835 E46.93972
G1 F2700 E41.93972
;MESH:motor_mount.stl(1)
G0 F6000 X88.937 Y85.605
G0 X88.937 Y86.734
G0 X118.261 Y87.47
G0 X118.091 Y90.545
G0 X119.78 Y91.951
;TYPE:WALL-INNER
G1 F2700 E46.93972
G1 F1200 X121.496 Y91.65 E47.02664
G1 X122.615 Y90.315 E47.11354
G1 X122.615 Y88.575 E47.20035
G1 X122.319 Y88.222 E47.22333
G1 X122.318 Y88.221 E47.2234
G1 X121.747 Y87.54 E47.26774
G1 X122.614 Y87.737 E47.29109
G1 X128.086 Y88.986 E47.57111
G1 X134.395 Y94.018 E47.97373
G1 X137.895 Y101.286 E48.37618
G1 X137.895 Y109.354 E48.7787
G1 X134.395 Y116.621 E49.18111
G1 X128.087 Y121.652 E49.58365
G1 X122.615 Y122.901 E49.86367
G1 X121.748 Y123.099 E49.90804
G1 X122.319 Y122.418 E49.93134
G1 X122.32 Y122.417 E49.93142
G1 X122.615 Y122.065 E49.95433
G1 X122.615 Y120.325 E50.04114
G1 X121.496 Y118.991 E50.12801
G1 X119.781 Y118.688 E50.21489
G1 X118.273 Y119.559 E50.30177
G1 X117.677 Y121.195 E50.38864
G1 X118.274 Y122.83 E50.47548
G1 X118.415 Y122.912 E50.48362
G1 X119.381 Y123.47 E50.53927
G1 X118.266 Y123.47 E50.56804
G1 X118.265 Y123.47 E50.56809
G1 X89.373 Y123.47 E52.00951
G1 X89.373 Y87.17 E53.82053
G1 X118.262 Y87.17 E55.26181
G1 X118.263 Y87.17 E55.26186
G1 X119.379 Y87.17 E55.31753
G1 X118.412 Y87.728 E55.34633
G1 X118.273 Y87.809 E55.35436
G1 X117.677 Y89.445 E55.44123
G1 X118.274 Y91.08 E55.52806
G1 X119.78 Y91.951 E55.61486
G0 F6000 X119.891 Y91.322
;TYPE:WALL-OUTER
G1 F1200 X121.177 Y91.097 E55.67999
G1 X122.015 Y90.097 E55.74508
G1 X122.015 Y88.793 E55.81014
G1 X121.177 Y87.794 E55.87519
G1 X119.892 Y87.567 E55.9403
G1 X118.762 Y88.219 E56.00538
G1 X118.316 Y89.445 E56.07047
G1 X118.763 Y90.67 E56.13553
G1 X119.891 Y91.322 E56.20053
G0 F6000 X119.776 Y91.971
G1 F2700 E51.20053
G0 F6000 X119.722 Y92.276
G0 X120.068 Y90.314
G0 X119.241 Y99.76
G0 X118.9 Y97.817
G0 X114.962 Y100.905
G0 X113.354 Y105.32
G0 X114.962 Y109.734
G0 X118.954 Y112.516
;TYPE:WALL-INNER
G1 F2700 E56.20053
G1 F1200 X123.877 Y111.648 E56.44993
G1 X127.09 Y107.819 E56.6993
G1 X127.09 Y102.821 E56.94865
G1 X123.877 Y98.991 E57.19806
G1 X118.954 Y98.123 E57.44746
G1 X114.625 Y100.623 E57.69686
G1 X112.916 Y105.32 E57.94623
G1 X114.625 Y110.016 E58.19554
G1 X118.954 Y112.516 E58.44495
G0 F6000 X119.065 Y111.887
;TYPE:WALL-OUTER
G1 F1200 X123.558 Y111.095 E58.67256
G1 X126.49 Y107.601 E58.90012
G1 X126.49 Y103.039 E59.12772
G1 X123.558 Y99.544 E59.35532
G1 X119.065 Y98.752 E59.58293
G1 X115.114 Y101.033 E59.81054
G1 X113.554 Y105.32 E60.03814
G1 X115.114 Y109.606 E60.26569
G1 X119.065 Y111.887 E60.4933
G0 F6000 X118.951 Y112.536
G1 F2700 E55.4933
G0 F6000 X118.9 Y112.822
