;FLAVOR:Marlin
;TIME:32944
;Filament used: 58.2472m
;Layer height: 0.28
;MINX:42.5
;MINY:17.1
;MINZ:0.28
;MAXX:192.5
;MAXY:217.9
;MAXZ:37.8
;Generated with Cura_SteamEngine 4.9.0
M140 S60
M105
M190 S60
M104 S190
M105
M109 S190
M82 ;absolute extrusion mode
; Ender 3 Custom Start G-code
G92 E0 ; Reset Extruder
G28 ; Home all axes
G1 Z2.0 F3000 ; Move Z Axis up little to prevent scratching of Heat Bed
G1 X0.1 Y20 Z0.3 F5000.0 ; Move to start position
G1 X0.1 Y200.0 Z0.3 F1500.0 E15 ; Draw the first line
G1 X0.4 Y200.0 Z0.3 F5000.0 ; Move to side a little
G1 X0.4 Y20 Z0.3 F1500.0 E30 ; Draw the second line
G92 E0 ; Reset Extruder
G1 Z2.0 F3000 ; Move Z Axis up little to prevent scratching of Heat Bed
G1 X5 Y20 Z0.3 F5000.0 ; Move over to prevent blob squish
G92 E0
G92 E0
G1 F2700 E-5
;LAYER_COUNT:136
;LAYER:0
M107
G0 F6000 X43.995 Y22.955 Z0.28
;TYPE:SKIRT
G1 F2700 E0
G1 F1200 X44.501 Y22.14 E0.067
G1 X45.073 Y21.37 E0.134
G1 X45.707 Y20.651 E0.20096
G1 X46.399 Y19.987 E0.26794
G1 X47.144 Y19.383 E0.33493
G1 X47.936 Y18.843 E0.40188
G1 X48.771 Y18.371 E0.46888
G1 X49.642 Y17.97 E0.53585
G1 X50.544 Y17.644 E0.60284
G1 X51.469 Y17.393 E0.66978
G1 X52.413 Y17.22 E0.73682
G1 X53.687 Y17.114 E0.82611
G1 X54.008 Y17.105 E0.84854
G1 X54.33 Y17.1 E0.87103
G1 X180.293 Y17.1 E9.66908
G1 X181.156 Y17.111 E9.72936
G1 X182.113 Y17.165 E9.79631
G1 X183.063 Y17.298 E9.86331
G1 X183.998 Y17.51 E9.93028
G1 X184.912 Y17.799 E9.99723
G1 X185.799 Y18.164 E10.06422
G1 X186.653 Y18.6 E10.1312
G1 X187.467 Y19.107 E10.19818
G1 X188.237 Y19.68 E10.26522
G1 X188.955 Y20.314 E10.33212
G1 X189.619 Y21.007 E10.39916
G1 X190.222 Y21.752 E10.4661
G1 X190.762 Y22.545 E10.53311
G1 X191.233 Y23.38 E10.60007
G1 X191.633 Y24.252 E10.66708
G1 X191.959 Y25.153 E10.734
G1 X192.209 Y26.079 E10.801
G1 X192.381 Y27.023 E10.86802
G1 X192.486 Y28.287 E10.95661
G1 X192.495 Y28.607 E10.97897
G1 X192.5 Y28.93 E11.00153
G1 X192.499 Y205.806 E23.35566
G1 X192.49 Y206.533 E23.40644
G1 X192.438 Y207.491 E23.47345
G1 X192.307 Y208.441 E23.54044
G1 X192.097 Y209.376 E23.60737
G1 X191.809 Y210.291 E23.67437
G1 X191.447 Y211.179 E23.74135
G1 X191.012 Y212.034 E23.80835
G1 X190.507 Y212.849 E23.87532
G1 X189.935 Y213.619 E23.94232
G1 X189.302 Y214.339 E24.00928
G1 X188.611 Y215.004 E24.07626
G1 X187.867 Y215.609 E24.14324
G1 X187.075 Y216.15 E24.21023
G1 X186.241 Y216.623 E24.2772
G1 X185.37 Y217.025 E24.3442
G1 X184.469 Y217.352 E24.41115
G1 X183.544 Y217.604 E24.47811
G1 X182.6 Y217.778 E24.54516
G1 X181.313 Y217.886 E24.63537
G1 X180.992 Y217.895 E24.6578
G1 X180.67 Y217.9 E24.68029
G1 X54.559 Y217.899 E33.48867
G1 X53.861 Y217.89 E33.53743
G1 X52.903 Y217.838 E33.60444
G1 X51.953 Y217.706 E33.67143
G1 X51.018 Y217.495 E33.73838
G1 X50.103 Y217.207 E33.80538
G1 X49.215 Y216.844 E33.87239
G1 X48.361 Y216.409 E33.93933
G1 X47.546 Y215.903 E34.00633
G1 X46.776 Y215.332 E34.07329
G1 X46.056 Y214.698 E34.1403
G1 X45.392 Y214.007 E34.20723
G1 X44.787 Y213.262 E34.27426
G1 X44.247 Y212.47 E34.34122
G1 X43.775 Y211.636 E34.40815
G1 X43.373 Y210.765 E34.47515
G1 X43.046 Y209.863 E34.54217
G1 X42.795 Y208.938 E34.60911
G1 X42.621 Y207.995 E34.67609
G1 X42.513 Y206.702 E34.76671
G1 X42.504 Y206.369 E34.78998
G1 X42.5 Y206.058 E34.8117
G1 X42.501 Y29.118 E47.17031
G1 X42.51 Y28.453 E47.21676
G1 X42.563 Y27.496 E47.2837
G1 X42.696 Y26.546 E47.3507
G1 X42.907 Y25.611 E47.41765
G1 X43.195 Y24.696 E47.48465
G1 X43.559 Y23.809 E47.55162
G1 X43.995 Y22.955 E47.61859
G0 F6000 X44.591 Y23.121
G1 F1200 X45.095 Y22.336 E47.68375
G1 X45.665 Y21.596 E47.74899
G1 X46.296 Y20.907 E47.81425
G1 X46.983 Y20.276 E47.8794
G1 X47.722 Y19.705 E47.94463
G1 X48.507 Y19.2 E48.00983
G1 X49.332 Y18.763 E48.07503
G1 X50.192 Y18.399 E48.14026
G1 X51.08 Y18.11 E48.20549
G1 X51.989 Y17.898 E48.27068
G1 X52.913 Y17.764 E48.33589
G1 X53.704 Y17.713 E48.39126
G1 X54.025 Y17.704 E48.41369
G1 X54.33 Y17.7 E48.43499
G1 X180.293 Y17.7 E57.23304
G1 X181.147 Y17.711 E57.29269
G1 X182.079 Y17.764 E57.35789
G1 X183.003 Y17.897 E57.4231
G1 X183.913 Y18.109 E57.48836
G1 X184.801 Y18.397 E57.55356
G1 X185.66 Y18.761 E57.61873
G1 X186.486 Y19.197 E57.68396
G1 X187.272 Y19.701 E57.74918
G1 X188.011 Y20.271 E57.81437
G1 X188.699 Y20.903 E57.87962
G1 X189.33 Y21.591 E57.94482
G1 X189.9 Y22.33 E58.01001
G1 X190.405 Y23.115 E58.0752
G1 X190.84 Y23.941 E58.14041
G1 X191.204 Y24.801 E58.20563
G1 X191.492 Y25.689 E58.27084
G1 X191.704 Y26.598 E58.33603
G1 X191.837 Y27.522 E58.40124
G1 X191.887 Y28.304 E58.45597
G1 X191.896 Y28.624 E58.47833
G1 X191.9 Y28.93 E58.4997
G1 X191.899 Y205.799 E70.85334
G1 X191.89 Y206.526 E70.90413
G1 X191.839 Y207.458 E70.96932
G1 X191.708 Y208.382 E71.0345
G1 X191.498 Y209.292 E71.09973
G1 X191.211 Y210.181 E71.16498
G1 X190.849 Y211.041 E71.23016
G1 X190.415 Y211.868 E71.29539
G1 X189.912 Y212.654 E71.36057
G1 X189.343 Y213.395 E71.42582
G1 X188.713 Y214.084 E71.49103
G1 X188.027 Y214.716 E71.55618
G1 X187.288 Y215.288 E71.62145
G1 X186.504 Y215.794 E71.68663
G1 X185.679 Y216.231 E71.75183
G1 X184.82 Y216.596 E71.81702
G1 X183.933 Y216.887 E71.88223
G1 X183.024 Y217.1 E71.94744
G1 X182.1 Y217.234 E72.01265
G1 X181.296 Y217.287 E72.06893
G1 X180.975 Y217.296 E72.09136
G1 X180.67 Y217.3 E72.11266
G1 X54.566 Y217.299 E80.92056
G1 X53.868 Y217.29 E80.96931
G1 X52.936 Y217.238 E81.03451
G1 X52.012 Y217.107 E81.0997
G1 X51.102 Y216.896 E81.16494
G1 X50.214 Y216.609 E81.23012
G1 X49.354 Y216.247 E81.2953
G1 X48.527 Y215.812 E81.36056
G1 X47.741 Y215.309 E81.42574
G1 X47.001 Y214.74 E81.49094
G1 X46.312 Y214.109 E81.5562
G1 X45.68 Y213.422 E81.6214
G1 X45.109 Y212.684 E81.68657
G1 X44.603 Y211.899 E81.7518
G1 X44.166 Y211.074 E81.81701
G1 X43.802 Y210.215 E81.88217
G1 X43.512 Y209.327 E81.94742
G1 X43.299 Y208.418 E82.01263
G1 X43.165 Y207.494 E82.07784
G1 X43.113 Y206.685 E82.13447
G1 X43.104 Y206.352 E82.15773
G1 X43.1 Y206.058 E82.17827
G1 X43.101 Y29.126 E94.53631
G1 X43.11 Y28.461 E94.58277
G1 X43.163 Y27.529 E94.64797
G1 X43.295 Y26.605 E94.71316
G1 X43.506 Y25.696 E94.77834
G1 X43.793 Y24.808 E94.84352
G1 X44.156 Y23.947 E94.90879
G1 X44.591 Y23.121 E94.97399
G0 F6000 X45.187 Y23.293
G1 F1200 X45.689 Y22.537 E95.03737
G1 X46.256 Y21.828 E95.10078
G1 X46.883 Y21.172 E95.16417
G1 X47.565 Y20.573 E95.22757
G1 X48.298 Y20.037 E95.29099
G1 X49.074 Y19.568 E95.35432
G1 X49.889 Y19.169 E95.4177
G1 X50.736 Y18.843 E95.48109
G1 X51.609 Y18.593 E95.54452
G1 X52.5 Y18.42 E95.60791
G1 X53.72 Y18.313 E95.69345
G1 X54.041 Y18.304 E95.71588
G1 X54.33 Y18.3 E95.73607
G1 X180.293 Y18.3 E104.53412
G1 X181.139 Y18.311 E104.59321
G1 X182.045 Y18.364 E104.6566
G1 X182.942 Y18.497 E104.71994
G1 X183.825 Y18.708 E104.78335
G1 X184.686 Y18.995 E104.84674
G1 X185.518 Y19.358 E104.91014
G1 X186.314 Y19.792 E104.97347
G1 X187.07 Y20.295 E105.03689
G1 X187.778 Y20.863 E105.10029
G1 X188.434 Y21.49 E105.16367
G1 X189.032 Y22.173 E105.22708
G1 X189.567 Y22.906 E105.29046
G1 X190.036 Y23.683 E105.35385
G1 X190.435 Y24.498 E105.41723
G1 X190.76 Y25.345 E105.4806
G1 X191.009 Y26.218 E105.54401
G1 X191.181 Y27.109 E105.60739
G1 X191.287 Y28.32 E105.69229
G1 X191.296 Y28.64 E105.71465
G1 X191.3 Y28.93 E105.73491
G1 X191.299 Y205.792 E118.08807
G1 X191.29 Y206.519 E118.13885
G1 X191.239 Y207.425 E118.20223
G1 X191.108 Y208.323 E118.26561
G1 X190.899 Y209.206 E118.32899
G1 X190.613 Y210.067 E118.39236
G1 X190.252 Y210.9 E118.45577
G1 X189.819 Y211.697 E118.51912
G1 X189.318 Y212.454 E118.58253
G1 X188.752 Y213.163 E118.64589
G1 X188.125 Y213.82 E118.70933
G1 X187.444 Y214.419 E118.77267
G1 X186.712 Y214.956 E118.83608
G1 X185.936 Y215.426 E118.89945
G1 X185.121 Y215.827 E118.96289
G1 X184.275 Y216.153 E119.02622
G1 X183.403 Y216.405 E119.08962
G1 X182.512 Y216.578 E119.15301
G1 X181.28 Y216.687 E119.2394
G1 X180.959 Y216.696 E119.26183
G1 X180.67 Y216.7 E119.28202
G1 X54.574 Y216.699 E128.08935
G1 X53.876 Y216.69 E128.13811
G1 X52.97 Y216.638 E128.20149
G1 X52.072 Y216.507 E128.26488
G1 X51.189 Y216.298 E128.32826
G1 X50.328 Y216.011 E128.39165
G1 X49.496 Y215.649 E128.45502
G1 X48.698 Y215.216 E128.51844
G1 X47.942 Y214.715 E128.58178
G1 X47.233 Y214.148 E128.64519
G1 X46.576 Y213.522 E128.70858
G1 X45.978 Y212.84 E128.77193
G1 X45.441 Y212.108 E128.83534
G1 X44.971 Y211.331 E128.89877
G1 X44.571 Y210.517 E128.96212
G1 X44.245 Y209.67 E129.02551
G1 X43.994 Y208.798 E129.08889
G1 X43.821 Y207.907 E129.15228
G1 X43.713 Y206.669 E129.23908
G1 X43.704 Y206.336 E129.26235
G1 X43.7 Y206.058 E129.28177
G1 X43.701 Y29.135 E141.63918
G1 X43.71 Y28.47 E141.68563
G1 X43.762 Y27.564 E141.74902
G1 X43.894 Y26.666 E141.81241
G1 X44.104 Y25.783 E141.87581
G1 X44.392 Y24.922 E141.93922
G1 X44.753 Y24.09 E142.00257
G1 X45.187 Y23.293 E142.06595
G1 F2700 E137.06595
;MESH:chassis.stl
G0 F6000 X61.081 Y73.539
G0 X60.98 Y74.106
G0 X61.248 Y75.021
G0 X61.698 Y75.489
G0 X69.134 Y98.992
G0 X69.217 Y99.255
G0 X97.205 Y187.722
G0 X96.246 Y186.059
G0 X98.45 Y186.04
G0 X100.368 Y186.555
G0 X101.772 Y187.959
G0 X102.287 Y189.877
G0 X101.772 Y191.794
G0 X100.504 Y193.433
;TYPE:WALL-INNER
G1 F2700 E142.06595
G1 F1200 X102.007 Y191.93 E142.21441
G1 X102.557 Y189.877 E142.36287
G1 X102.007 Y187.823 E142.51138
G1 X100.504 Y186.32 E142.65985
G1 X98.45 Y185.77 E142.80836
G1 X96.396 Y186.32 E142.95688
G1 X94.893 Y187.823 E143.10535
G1 X94.343 Y189.877 E143.25386
G1 X94.893 Y191.93 E143.40232
G1 X96.396 Y193.433 E143.55078
G1 X98.45 Y193.984 E143.69931
G1 X100.504 Y193.433 E143.84785
G0 F6000 X100.193 Y192.895
;TYPE:WALL-OUTER
G1 F1200 X101.469 Y191.619 E143.97389
G1 X101.936 Y189.877 E144.09986
G1 X101.469 Y188.134 E144.2259
G1 X100.193 Y186.858 E144.35194
G1 X98.45 Y186.391 E144.47797
G1 X96.707 Y186.858 E144.60401
G1 X95.431 Y188.134 E144.73005
G1 X94.964 Y189.877 E144.85608
G1 X95.431 Y191.619 E144.98205
G1 X96.707 Y192.895 E145.10809
G1 X98.45 Y193.363 E145.23415
G1 X100.193 Y192.895 E145.3602
G0 F6000 X100.523 Y193.466
G1 F2700 E140.3602
G0 F6000 X101.772 Y191.794
G0 X102.287 Y189.877
G0 X101.772 Y187.959
G0 X100.654 Y186.059
G0 X99.695 Y187.722
G0 X116.469 Y153.245
G0 X118.024 Y153.313
G0 X121.695 Y143.841
G0 X121.254 Y143.411
G0 X171.225 Y40.713
G0 X169.958 Y42.171
G0 X171.858 Y42.72
;TYPE:WALL-INNER
G1 F2700 E145.3602
G1 F1200 X173.71 Y42.454 E145.49088
G1 X175.123 Y41.229 E145.6215
G1 X175.65 Y39.435 E145.7521
G1 X175.123 Y37.64 E145.88277
G1 X173.71 Y36.415 E146.01339
G1 X171.858 Y36.15 E146.14406
G1 X170.158 Y36.926 E146.27458
G1 X169.146 Y38.5 E146.40528
G1 X169.146 Y40.369 E146.53583
G1 X170.157 Y41.942 E146.66643
G1 X171.858 Y42.72 E146.79708
G0 F6000 X171.947 Y42.101
;TYPE:WALL-OUTER
G1 F1200 X173.45 Y41.885 E146.90313
G1 X174.597 Y40.891 E147.00914
G1 X175.025 Y39.435 E147.11514
G1 X174.597 Y37.978 E147.22121
G1 X173.45 Y36.984 E147.32722
G1 X171.947 Y36.769 E147.43327
G1 X170.567 Y37.399 E147.53922
G1 X169.746 Y38.676 E147.64526
G1 X169.746 Y40.193 E147.75122
G1 X170.567 Y41.47 E147.85726
G1 X171.947 Y42.101 E147.96324
G0 F6000 X171.853 Y42.754
G1 F2700 E142.96324
G0 F6000 X170.625 Y41.93
G0 X168.855 Y40.455
G0 X170.709 Y39.91
G0 X145.342 Y40.35
G0 X146.969 Y41.394
G0 X145.365 Y42.123
G0 X143.448 Y42.72
;TYPE:WALL-INNER
G1 F2700 E147.96324
G1 F1200 X145.3 Y42.454 E148.09392
G1 X146.713 Y41.229 E148.22454
G1 X147.24 Y39.435 E148.35514
G1 X146.713 Y37.64 E148.48581
G1 X145.3 Y36.415 E148.61643
G1 X143.448 Y36.15 E148.7471
G1 X141.748 Y36.926 E148.87762
G1 X140.736 Y38.5 E149.00832
G1 X140.736 Y40.369 E149.13887
G1 X141.747 Y41.942 E149.26947
G1 X143.448 Y42.72 E149.40012
G0 F6000 X143.537 Y42.101
;TYPE:WALL-OUTER
G1 F1200 X145.04 Y41.885 E149.50617
G1 X146.187 Y40.891 E149.61218
G1 X146.615 Y39.435 E149.71818
G1 X146.187 Y37.978 E149.82425
G1 X145.04 Y36.984 E149.93026
G1 X143.537 Y36.769 E150.03631
G1 X142.157 Y37.399 E150.14226
G1 X141.336 Y38.676 E150.2483
G1 X141.336 Y40.193 E150.35426
G1 X142.157 Y41.47 E150.4603
G1 X143.537 Y42.101 E150.56628
G0 F6000 X143.443 Y42.754
G1 F2700 E145.56628
G0 F6000 X142.215 Y41.93
G0 X140.445 Y40.455
G0 X142.299 Y39.91
G0 X92.779 Y39.91
G0 X89.658 Y40.35
G0 X89.449 Y39.91
G0 X64.291 Y39.91
G0 X66.145 Y40.455
G0 X64.813 Y41.607
G0 X63.142 Y42.72
;TYPE:WALL-INNER
G1 F2700 E150.56628
G1 F1200 X64.843 Y41.942 E150.69693
G1 X65.854 Y40.369 E150.82753
G1 X65.854 Y38.5 E150.95807
G1 X64.842 Y36.926 E151.08877
G1 X63.142 Y36.15 E151.2193
G1 X61.29 Y36.415 E151.34997
G1 X59.877 Y37.64 E151.48059
G1 X59.35 Y39.435 E151.61126
G1 X59.877 Y41.229 E151.74185
G1 X61.29 Y42.454 E151.87247
G1 X63.142 Y42.72 E152.00316
G0 F6000 X63.053 Y42.101
;TYPE:WALL-OUTER
G1 F1200 X64.433 Y41.47 E152.10914
G1 X65.254 Y40.193 E152.21518
G1 X65.254 Y38.676 E152.32114
G1 X64.433 Y37.399 E152.42717
G1 X63.053 Y36.769 E152.53313
G1 X61.55 Y36.984 E152.63918
G1 X60.403 Y37.978 E152.74519
G1 X59.975 Y39.435 E152.85125
G1 X60.403 Y40.891 E152.95725
G1 X61.55 Y41.885 E153.06326
G1 X63.053 Y42.101 E153.16932
G0 F6000 X63.147 Y42.754
G1 F2700 E148.16932
G0 F6000 X64.375 Y41.93
G0 X66.145 Y40.455
G0 X64.291 Y39.91
G0 X89.658 Y40.35
G0 X88.031 Y41.394
G0 X89.635 Y42.123
G0 X91.552 Y42.72
;TYPE:WALL-INNER
G1 F2700 E153.16932
G1 F1200 X93.253 Y41.942 E153.29997
G1 X94.264 Y40.369 E153.43057
G1 X94.264 Y38.5 E153.56111
G1 X93.252 Y36.926 E153.69181
G1 X91.552 Y36.15 E153.82234
G1 X89.7 Y36.415 E153.95301
G1 X88.287 Y37.64 E154.08363
G1 X87.76 Y39.435 E154.2143
G1 X88.287 Y41.229 E154.34489
G1 X89.7 Y42.454 E154.47551
G1 X91.552 Y42.72 E154.6062
G0 F6000 X91.463 Y42.101
;TYPE:WALL-OUTER
G1 F1200 X92.843 Y41.47 E154.71218
G1 X93.664 Y40.193 E154.81822
G1 X93.664 Y38.676 E154.92418
G1 X92.843 Y37.399 E155.03021
G1 X91.463 Y36.769 E155.13617
G1 X89.96 Y36.984 E155.24222
G1 X88.813 Y37.978 E155.34823
G1 X88.385 Y39.435 E155.45429
G1 X88.813 Y40.891 E155.56029
G1 X89.96 Y41.885 E155.6663
G1 X91.463 Y42.101 E155.77236
G0 F6000 X91.557 Y42.754
G1 F2700 E150.77236
G0 F6000 X91.596 Y43.021
G0 X91.321 Y41.108
G0 X91.32 Y72.433
G0 X91.596 Y70.52
G0 X93.074 Y71.804
G0 X94.002 Y73.248
G0 X94.002 Y74.963
G0 X93.074 Y76.407
G0 X91.552 Y77.391
;TYPE:WALL-INNER
G1 F2700 E155.77236
G1 F1200 X93.253 Y76.613 E155.90301
G1 X94.264 Y75.04 E156.03361
G1 X94.264 Y73.171 E156.16415
G1 X93.252 Y71.597 E156.29485
G1 X91.552 Y70.821 E156.42538
G1 X89.7 Y71.086 E156.55605
G1 X88.287 Y72.311 E156.68667
G1 X87.76 Y74.106 E156.81734
G1 X88.287 Y75.9 E156.94793
G1 X89.7 Y77.125 E157.07855
G1 X91.552 Y77.391 E157.20924
G0 F6000 X91.463 Y76.772
;TYPE:WALL-OUTER
G1 F1200 X92.843 Y76.141 E157.31522
G1 X93.664 Y74.864 E157.42126
G1 X93.664 Y73.347 E157.52722
G1 X92.843 Y72.07 E157.63325
G1 X91.463 Y71.44 E157.73921
G1 X89.96 Y71.655 E157.84526
G1 X88.813 Y72.649 E157.95127
G1 X88.385 Y74.106 E158.05733
G1 X88.813 Y75.562 E158.16333
G1 X89.96 Y76.556 E158.26934
G1 X91.463 Y76.772 E158.3754
G0 F6000 X91.557 Y77.425
G1 F2700 E153.3754
G0 F6000 X90.146 Y76.981
G0 X88.031 Y76.065
G0 X89.658 Y75.021
G0 X64.291 Y74.581
G0 X66.145 Y75.126
G0 X64.813 Y76.278
G0 X63.142 Y77.391
;TYPE:WALL-INNER
G1 F2700 E158.3754
G1 F1200 X64.843 Y76.613 E158.50605
G1 X65.854 Y75.04 E158.63665
G1 X65.854 Y73.171 E158.76719
G1 X64.842 Y71.597 E158.89789
G1 X63.142 Y70.821 E159.02842
G1 X61.29 Y71.086 E159.15909
G1 X59.877 Y72.311 E159.28971
G1 X59.35 Y74.106 E159.42038
G1 X59.877 Y75.9 E159.55097
G1 X61.29 Y77.125 E159.68159
G1 X63.142 Y77.391 E159.81228
G0 F6000 X63.053 Y76.772
;TYPE:WALL-OUTER
G1 F1200 X64.433 Y76.141 E159.91826
G1 X65.254 Y74.864 E160.0243
G1 X65.254 Y73.347 E160.13026
G1 X64.433 Y72.07 E160.23629
G1 X63.053 Y71.44 E160.34225
